X:1
T: Dermot Grogan's
R: jig
C: Dermot Grogan ()
S: Pauline Conneely - Augusta Irish Week 1999
Z: John Gillis <jegillis:email.msn.com> irtrad-l 2000-04-07
N: Also played in G
M: 6/8
L: 1/8
K: D
a \
| dAF AFE | DFD EDB, | A,B,D EDE | FEE ~E2A \
| dAF AFE | DFD EDB, | A,B,D EDE | FDC D2 :|
|: A, \
| DFA dcd | ede fdB | def edB | A(3Bcd ~e2f \
| edB BAF | EFD EDB, | A,B,D EDE | FDC D2 :|
